X:124
T:The Gift
M:C|
L:1/8
C:© Paul Gitlitz 2002
R:Reel
B:Hunters and Gatherers
K:D
FG|"D"Adcd "(Bm)"BAFA|"(G)"BAFD "A"E4|"G"gfeg "D"fedA|"A7"BAcA BAFG|!
"D"Adcd "(Bm)"BAFA|"(G)"BAFD "A"E4|"Em"gfeg "D"fedA|1"A"BAcA "D"d2:|2"A7"BAcA "D"d2fg|!
|"D"afbf afde|fedB A2ef|"Em"gfeg "D"fedf|"A"edcB A2fg|!
"D"afbf afde|fedB A2ef|"Em"gfeg "D"fedf|"A"BAcA "D"d4|!
"D"afbf afde|fedB A2ef|"Em"gfeg "D"agfa|"A"bagb a2fg|!
"D"afbf afde|fedB A2ef|"Em"gfeg "D"fedf|"A"edBc "D"d4|]
